!!!COM: Palestrina, Giovanni Perluigi da
!!!OPR: De Beata Marie Virginis (II)
!!!OTL: Sanctus rpt
**kern	**kern	**kern	**kern	**kern
*Ibass	*Itenor	*Itenor	*Icalto	*Icant
!Bassus	!Tenor 2	!Tenor 1	!Altus	!Cantus
*clefF4	*clefGv2	*clefGv2	*clefG2	*clefG2
*k[]	*k[]	*k[]	*k[]	*k[]
*G:mix	*G:mix	*G:mix	*G:mix	*G:mix
*M4/2	*M4/2	*M4/2	*M4/2	*M4/2
=1	=1	=1	=1	=1
0r	0r	0r	1g	1r
.	.	.	2e	2r
.	.	.	2d	2dd
=2	=2	=2	=2	=2
0r	2r	0r	2e	2b
.	2d	.	2f	2a
.	2B	.	2g	2b
.	2A	.	4f	2cc
.	.	.	4e	.
=3	=3	=3	=3	=3
0r	2B	0r	2d	2dd
.	2c	.	1g	4cc
.	.	.	.	4b
.	[1d	.	.	1a
.	.	.	2f#	.
=4	=4	=4	=4	=4
1G	2d]	0r	2g	2.b
.	2B	.	2d	.
.	.	.	.	4a
2E	2c	.	2e	2g
2D	[2d	.	2f	2f
=5	=5	=5	=5	=5
2E	4d]	1r	2g	2e
.	4c	.	.	.
2F	1c	.	4f	2a
.	.	.	4e	.
1G	.	2r	1d	1g
.	2B	2g	.	.
=6	=6	=6	=6	=6
0r	2c	2e	1g	0r
.	2B	2d	.	.
.	1A	2e	1cc	.
.	.	2f	.	.
=7	=7	=7	=7	=7
1r	1G	2.g	2b	1dd
.	.	.	1g	.
.	.	8f	.	.
.	.	8e	.	.
2r	1r	1d	.	2b
2d	.	.	2f	2a
=8	=8	=8	=8	=8
2B	0r	2r	2d	2b
2A	.	2.a	2e	2cc
2B	.	.	2d	2dd
.	.	4g	.	.
2c	.	[2g	2g	2ee
=9	=9	=9	=9	=9
2.d	1r	2g]	2b	0dd
.	.	2f#	2a	.
4c	.	.	.	.
4B	2r	1g	2.g	.
4A	.	.	.	.
[2G	2d	.	.	.
.	.	.	4f	.
=10	=10	=10	=10	=10
2G]	2B	2r	2e	2r
2F	2A	2a	2d	2dd
1E	2B	2g	1e	1gg
.	2c	2e	.	.
=11	=11	=11	=11	=11
1D	1d	1f	0a	2ff
.	.	.	.	1dd
1A	1e	2e	.	.
.	.	[2A	.	2cc#
=12	=12	=12	=12	=12
1D	1d	2A]	1f#	2dd
.	.	1a	.	4d
.	.	.	.	4e
1d	2r	.	1r	4f#
.	.	.	.	4g
.	2d	2f#	.	[2a
=13	=13	=13	=13	=13
2B	2d	1g	0r	4a]
.	.	.	.	4g
2c	1e	.	.	1g
1A	.	1c	.	.
.	[2c	.	.	2f#
=14	=14	=14	=14	=14
1G	2c]	1d	2r	1g
.	2B	.	2g	.
2A	2c	4c	2e	1r
.	.	4A	.	.
[2c	2F	[2a	2f	.
=15	=15	=15	=15	=15
2c]	1G	4a]	1d	0r
.	.	4g	.	.
2B	.	1g	.	.
1A	2r	.	1c	.
.	2c	2f#	.	.
=16	=16	=16	=16	=16
2G	2B	2g	2d	0r
4F	4A	2c	1f	.
4E	4G	.	.	.
2D	4A	2d	.	.
.	4B	.	.	.
2C	[2c	2g	2e	.
=17	=17	=17	=17	=17
1G	2c]	1g	2d	2r
.	4B	.	1g	2dd
.	4A	.	.	.
1r	2G	1r	.	2b
.	[2g	.	2c	2cc
=18	=18	=18	=18	=18
0r	2g]	2r	1d	1a
.	2f	2d	.	.
.	2d	2B	2r	1g
.	2e	2c	[2g	.
=19	=19	=19	=19	=19
0r	1c	1A	2g]	2a
.	.	.	2f	1cc
.	2r	1G	2e	.
.	2g	.	[2d	2b
=20	=20	=20	=20	=20
1r	2e	2A	4d]	1a
.	.	.	4c	.
.	2f	2F	1c	.
2r	1d	[1G	.	2g
2G	.	.	2B	2dd
=21	=21	=21	=21	=21
2E	1c	2G]	2c	2ee
2F	.	2A	2.A	2cc
1D	2d	1F	.	2ff
.	.	.	4A	.
.	2f	.	2B	2dd
=22	=22	=22	=22	=22
1C	4e	1G	2c	1ee
.	4d	.	.	.
.	4c	.	2e	.
.	4B	.	.	.
2D	1A	2r	2f	2dd
[2F	.	[2c	[2a	4cc
.	.	.	.	4b
=23	=23	=23	=23	=23
2F]	1r	2c]	2a]	2a
2E	.	2G	1g	2cc
1D	1d	1A	.	1dd
.	.	.	2f#	.
=24	=24	=24	=24	=24
2G	2B	1G	2g	2r
2E	2c	.	2g	2ee
2F	1A	2r	2a	2cc
2D	.	[2d	2f	2dd
=25	=25	=25	=25	=25
1E	1G	2d]	1g	2b
.	.	2c	.	2g
2D	2A	2d	2f#	2dd
2C	[2c	[2G	4e	2ee
.	.	.	4f#	.
=26	=26	=26	=26	=26
1G	2c]	4G]	4g	0dd
.	.	4A	4d	.
.	2B	4B	1g	.
.	.	4c	.	.
1D	1A	1d	.	.
.	.	.	2f#	.
=27	=27	=27	=27	=27
[0G	[0G	[0d	[0g	[0b
=28	=28	=28	=28	=28
0G]	0G]	0d]	0g]	0b]
*	*	*	*-	*-
!! Pleni
*Ibass	*Itenor	*Itenor
!Bassus	!Tenor 2	!Tenor 1
*clefF4	*clefGv2	*clefGv2
*k[]	*k[]	*k[]
*G:mix	*G:mix	*G:mix
*M4/2	*M4/2	*M4/2
=29	=29	=29
0r	1G	0r
.	2B	.
.	2c	.
=30	=30	=30
1G	2.d	0r
.	8e	.
.	8f#	.
2B	1g	.
2c	.	.
=31	=31	=31
2.d	2f	0r
.	2d	.
8c	.	.
8B	.	.
2A	2f	.
2c	2e	.
=32	=32	=32
2.B	2.d	1G
4A	4c	.
4G	2d	2B
4F	.	.
2E	[2e	2c
=33	=33	=33
2F	4e]	2.d
.	4d	.
2G	1d	.
.	.	8e
.	.	8f#
1E	.	1g
.	2c#	.
=34	=34	=34
1D	2d	2f
.	1a	2d
1r	.	2f
.	2g	2e
=35	=35	=35
2r	2f	2.d
2D	1a	.
.	.	4c
2F	.	2d
2G	4g	2e
.	4f	.
=36	=36	=36
2A	2e	2c#
2B-	2d	1d
2G	1e	.
2A	.	2c#
=37	=37	=37
2D	0d	1d
2G	.	.
2G	.	2r
2D	.	2d
=38	=38	=38
1.G	2r	2d
.	2d	2G
.	2d	[1g
2E	2G	.
=39	=39	=39
1A	1.c	2g]
.	.	2f
1G	.	2e
.	4B	4d
.	4A	4c
=40	=40	=40
1r	2B	2d
.	2c	1c
1G	2.d	.
.	.	4B
.	4c	4A
=41	=41	=41
2G	2d	2B
2C	2e	2c
[1D	[1c	2.A
.	.	4B
=42	=42	=42
2D]	1c]	4c
.	.	4d
4E	.	1e
4D	.	.
2E	1r	.
2F#	.	4d
.	.	4c
=43	=43	=43
2.G	2r	2e
.	2g	2.d
4F	.	.
2E	2g	.
.	.	4c
2F	2c	[2c
=44	=44	=44
1D	1.f	2c]
.	.	2B
2.A	.	1c
.	4e	.
4B	4d	.
=45	=45	=45
2c	2e	1r
2d	2f#	.
1G	2.g	2r
.	.	2g
.	4f	.
=46	=46	=46
1r	4e	2g
.	4d	.
.	2e	2c
2r	1a	[1f
2d	.	.
=47	=47	=47
2d	2a	2f]
2G	2.g	4e
.	.	4d
[1c	.	2.e
.	4f	.
.	4e	.
.	4d	4f#
=48	=48	=48
2c]	2e	0g
4B	4d	.
4A	4c	.
2B	2d	.
2c	[2e	.
=49	=49	=49
1d	4e]	1f
.	4d	.
.	1d	.
1A	.	1e
.	2c#	.
=50	=50	=50
[0D	[0d	[0d
=51	=51	=51
0D]	0d]	0d]
*-	*-	*-
!! Hosanna
**kern	**kern	**kern	**kern	**kern
*Ibass	*Itenor	*Itenor	*Icalto	*Icant
!Bassus	!Tenor 2	!Tenor 1	!Altus	!Cantus
*clefF4	*clefGv2	*clefGv2	*clefG2	*clefG2
*k[]	*k[]	*k[]	*k[]	*k[]
*G:mix	*G:mix	*G:mix	*G:mix	*G:mix
*M4/2	*M4/2	*M4/2	*M4/2	*M4/2
=52	=52	=52	=52	=52
0r	0r	0r	1r	1dd
.	.	.	1g	2g
.	.	.	.	2dd
=53	=53	=53	=53	=53
0r	0r	0r	2c	2cc
.	.	.	2g	2b
.	.	.	2f	2a
.	.	.	2e	2g
=54	=54	=54	=54	=54
0r	0r	0r	2d	2a
.	.	.	4c	2cc
.	.	.	4d	.
.	.	.	4e	4b
.	.	.	4f#	4a
.	.	.	[2g	4b
.	.	.	.	4g
=55	=55	=55	=55	=55
1r	1d	0r	2g]	1a
.	.	.	2f#	.
1G	2G	.	2.g	[1g
.	2d	.	.	.
.	.	.	4f	.
=56	=56	=56	=56	=56
2C	2c	1g	2e	1g]
2G	2B	.	2d	.
2F	2A	2c	2r	1r
2E	2G	2g	2c	.
=57	=57	=57	=57	=57
2D	2A	2f	2d	0r
2C	2c	2e	2e	.
2D	2B	2d	4f	.
.	.	.	4g	.
2F	2A	4c	4a	.
.	.	4d	4f	.
=58	=58	=58	=58	=58
4E	2G	4e	2g	1r
4D	.	4f	.	.
4E	1c	4g	2e	.
4C	.	4e	.	.
1D	.	1f	2a	1dd
.	2B	.	2d	.
=59	=59	=59	=59	=59
[0C	1c	0e	2r	2g
.	.	.	2g	2.gg
.	1g	.	2c	.
.	.	.	.	4ff
.	.	.	[2g	4ee
.	.	.	.	4dd
=60	=60	=60	=60	=60
1C]	2c	0r	4g]	2ee
.	.	.	4f	.
.	2g	.	2e	2.cc
1r	2f	.	2a	.
.	.	.	.	4b
.	2e	.	[2g	2g
=61	=61	=61	=61	=61
1r	2.d	2r	2g]	1a
.	.	2d	2f#	.
.	4c	.	.	.
2r	4B	2G	1g	2b
.	4A	.	.	.
2G	2B	2d	.	[2g
=62	=62	=62	=62	=62
2C	2e	2c	2r	4g]
.	.	.	.	4a
2G	2d	2B	2g	2b
2F	2r	2A	2c	1cc
2E	2c	2G	2g	.
=63	=63	=63	=63	=63
2D	2d	2A	2f	2r
2C	1G	2c	2e	2cc
1G	.	4B	2d	2dd
.	.	4A	.	.
.	[2d	4B	[2g	2b
.	.	4G	.	.
=64	=64	=64	=64	=64
0D	2d]	0A	2g]	2dd
.	2d	.	4f#	2dd
.	.	.	4e	.
.	1d	.	1f#	1dd
=65	=65	=65	=65	=65
[0G	[0d	[0G	[0g	[0b
=66	=66	=66	=66	=66
0G]	0d]	0G]	0g]	0b]
==	==	==	==	==
*-	*-	*-	*-	*-
!!!CDT: 1525/^1526/-1594/2/2
!!!OCY: Italia
!!!AGN: Mass (Paraphrase)
!!!AST: renaissance, vocal
!!!ASW: Gregorian Mass
!!!PWK: Masses, Book Mantuan I
!!!RNB: Cadence finals: D
!!!YOR: Le Opere Complete, v. 18, p. 126
!!!YOO: Rome, Italy: Fratelli Scalera
!!!END: 1992//
!!!EED: John Miller
!!!YEC: Copyright 2000, John Miller
!!!YEN: United States of America
!!!YEM: Rights to all derivative electronic formats reserved.
!!!YEM: Refer to licensing agreement for further details.
!!!YEM: This file must be accompanied by the licensing agreement.
!!!YEM: A copy of the licensing agreement may be found at http://www.music-cog.ohio-state.edu/HumdrumDatabases/Palestrina/license.txt
!!!EMD: converted to Humdrum by Bret Aarden
